!!!COM:	de Orto, Marbrianus
!!!CDT:	~1460///-1529//
!!!OPR:	Missa J'ay pris amours
!!!ONM:	1
!!!OTL:	Kyrie
!!!AGN:	Mass; Kyrie
!!!SCT:	Ort1002a
!!!SCA:	Ort1002a
!!!voices-OPR:	4
!!!voices:	4
**kern	**kern	**kern	**kern
*staff4	*staff3	*staff2	*staff1
*Ivox	*Ivox	*Ivox	*Ivox
*I"Bassus	*I"Tenor	*I"Altus	*I"Superius
*I'B	*I'T	*I'A	*I'S
*>[A,B,C]	*>[A,B,C]	*>[A,B,C]	*>[A,B,C]
*>A	*>A	*>A	*>A
*clefF4	*clefGv2	*clefGv2	*clefG2
*k[]	*k[]	*k[]	*k[]
*M2/1	*M2/1	*M2/1	*M2/1
*met(C)	*met(C)	*met(C)	*met(C)
!!section: Kyrie I
!!!OMD: Kyrie I
=1-	=1-	=1-	=1-
0r	0r	0A	1a
.	.	.	1cc
=2	=2	=2	=2
1r	0r	1G	1b
2.A\	.	1c	1e
4G\	.	.	.
=3	=3	=3	=3
2F\	0r	2d\	2r
2E\	.	2e\	2g/
2F\	.	2A/	2a/
2E\	.	[2e\	2b\
=4	=4	=4	=4
2.A\	0r	4e\]	2.cc\
.	.	4d\	.
.	.	2.c\	.
4G\	.	.	4b\
2F\	.	.	2a/
.	.	4d\	.
2E\	.	2e\	2g/
=5	=5	=5	=5
2F\	0r	2d\	2r
2E\	.	2.e\	2b\
2A\	.	.	2cc\
.	.	4d\	.
2G\	.	2B\	2dd\
=6	=6	=6	=6
2c\	0r	2A/	2ee\
2B\	.	2r	2.dd\
2.G\	.	2B\	.
.	.	.	4cc\
.	.	2d\	4b\
4F\	.	.	4a/
=7	=7	=7	=7
2E\	0r	2e\	2g/
2F\	.	2A/	1a
1E	.	1B	.
.	.	.	2g#i/
=8	=8	=8	=8
2r	0A	2A/	0a
2.F\	.	2c\	.
.	.	2d\	.
4E\	.	.	.
2D\	.	2f\	.
=9	=9	=9	=9
2C/	1A	2e\	0r
2D\	.	2.f\	.
1F	1A	.	.
.	.	4e\	.
.	.	[2c\	.
=10	=10	=10	=10
0E	0G	2c\]	0r
.	.	4B\	.
.	.	4A/	.
.	.	1B	.
=11	=11	=11	=11
0F	0A	1A	2r
.	.	.	2a/
.	.	1r	1cc
=12	=12	=12	=12
2r	0E	1e	1b
1G	.	.	.
.	.	1g	2e/
2E\	.	.	2b\
=13	=13	=13	=13
1A	1r	0e	1cc
1E	1G	.	1b
=14	=14	=14	=14
2r	1A	1c	1e
2A\	.	.	.
1G	1B	[1g	2r
.	.	.	2d/
=15	=15	=15	=15
2C/	1c	2g\]	2e/
2F\	.	2f\	2.a/
1G	2B\	2d\	.
.	.	.	4g/
.	2G/	2B\	[2dd\
=16	=16	=16	=16
1r	1A	1c	4dd\]
.	.	.	4cc\
.	.	.	1cc
2r	1G	1d	.
2G\	.	.	2b\
=17	=17	=17	=17
1A	1r	1c	2cc\
.	.	.	4b\
.	.	.	4a/
1E	1B	2.e\	1g
.	.	4d\	.
=18	=18	=18	=18
2.A\	1c	4c\	0r
.	.	4B\	.
.	.	2.A/	.
4G\	.	.	.
4F\	1d	.	.
4E\	.	4G/	.
2D\	.	4A/	.
.	.	4B\	.
=19	=19	=19	=19
2C/	2e\	2c\	2g/
2F\	1c	2A/	2a/
2A\	.	2e\	2cc\
2G\	2d\	2g\	[2b\
=20	=20	=20	=20
2A\	2c\	4f\	4b\]
.	.	2e\	4a/
2F\	2A/	.	2.a/
.	.	4d\	.
1E	1B	[1el	.
.	.	.	4g#i/
.	.	.	4g#i/
.	.	.	4f#i/
=21	=21	=21	=21
0Al	0Al	0e]	0al
!!LO:LB:i:g=z
=22||	=22||	=22||	=22||
*>B	*>B	*>B	*>B
*clefF4	*clefGv2	*clefGv2	*clefG2
*k[]	*k[]	*k[]	*k[]
*M2/1	*M2/1	*M2/1	*M2/1
*met(C)	*met(C)	*met(C)	*met(C)
!!section: Christe
!!!OMD: Christe
0E	0r	0B	0r
=23	=23	=23	=23
1A	0r	1c	0r
1G	.	1B	.
=24	=24	=24	=24
0F	0r	2c\	0r
.	.	2.d\	.
.	.	4c\	.
.	.	4B\	.
.	.	4A/	.
=25	=25	=25	=25
1E	0r	1.G	0b
1G	.	.	.
.	.	2E/	.
=26	=26	=26	=26
1A	0r	1.e	1cc
2.G\	.	.	1b
.	.	2d\	.
4F\	.	.	.
=27	=27	=27	=27
2E\	0r	2e\	2cc\
1D	.	2.f\	2.dd\
.	.	4e\	4cc\
2D\	.	4d\	4b\
.	.	4c\	4a/
=28	=28	=28	=28
0E	0r	1B	0g
.	.	2r	.
.	.	[2c\	.
=29	=29	=29	=29
1F	0r	2c\]	1a
.	.	2A/	.
2E\	.	2B\	2g/
2D\	.	[2d\	[2f/
=30	=30	=30	=30
1E	0r	4d\]	2f/]
.	.	4c\	.
.	.	1B	1e
1F	.	.	.
.	.	2A/	2d/
=31	=31	=31	=31
0E	0r	1B	1e
.	.	2c\	1r
.	.	2B\	.
=32	=32	=32	=32
0r	[0A	1e	0cc
.	.	2f\	.
.	.	[2e\	.
=33	=33	=33	=33
0r	1A]	2e\]	1cc
.	.	2c\	.
.	1G	1d	2b\
.	.	.	[2dd\
=34	=34	=34	=34
0r	0F	1r	4dd\]
.	.	.	4cc\
.	.	.	4b\
.	.	.	4a/
.	.	1A	[1a
=35	=35	=35	=35
0r	0E	0B	1a]
.	.	.	1g#i
=36	=36	=36	=36
1.A	1r	1A	0a
.	1e	1r	.
2G\	.	.	.
=37	=37	=37	=37
2F\	1f	0r	1r
4E\	.	.	.
4D\	.	.	.
1C	1e	.	1g
=38	=38	=38	=38
2F\	0c	0r	2a/
2E\	.	.	2g/
1A	.	.	1cc
=39	=39	=39	=39
2G\	0d	0r	2b\
2F\	.	.	1a
1D	.	.	.
.	.	.	4g/
.	.	.	4f/
=40	=40	=40	=40
0A	[0c	1A	0e
.	.	2.c\	.
.	.	4d\	.
=41	=41	=41	=41
0r	1c]	2.e\	0r
.	.	4f\	.
.	1B	[1g	.
=42	=42	=42	=42
0r	0A	2g\]	0cc
.	.	4f#i\	.
.	.	4e\	.
.	.	1f#i	.
=43	=43	=43	=43
0E	1G	1g	1b
.	[1c	1e	1g
=44	=44	=44	=44
0F	1c]	2r	0a
.	.	2c\	.
.	1d	1A	.
=45	=45	=45	=45
1E	0e	1.B	1g
1r	.	.	2r
.	.	[2c\	[2c/
=46	=46	=46	=46
2F\	0A	2c\]	4c/]
.	.	.	4d/
4E\	.	1c	4e/
4D\	.	.	4f/
2C/	.	.	2e/
2D\	.	2F/	2f/
=47	=47	=47	=47
1C	1c	1G	2e/
.	.	.	2c/
1G	1B	1r	1d
=48	=48	=48	=48
1A	1c	1r	1e
1F	1d	1A	1a
=49	=49	=49	=49
2E\	1.e	2B\	2g/
2.AA/	.	2A/	1cc
.	.	1c	.
4BB/	.	.	.
4C/	4d\	.	4b\
4D\	4c\	.	4a/
=50	=50	=50	=50
[0El	[0Bl	1r	[0gl
.	.	[1e	.
=51	=51	=51	=51
0E_	0B_	2e\]	0g_
.	.	4d\	.
.	.	4c\	.
.	.	2B\	.
.	.	2E/	.
=52	=52	=52	=52
0E]	0B]	0el	0g]
!!LO:LB:i:g=z
=53||	=53||	=53||	=53||
*>C	*>C	*>C	*>C
*clefF4	*clefGv2	*clefGv2	*clefG2
*k[]	*k[]	*k[]	*k[]
*M3/1	*M3/1	*M3/1	*M3/1
*met(O|)	*met(O|)	*met(O|)	*met(O|)
!!section: Kyrie II
!!!OMD: Kyrie II
0E	0.r	0.r	0g
1E	.	.	1g
=54	=54	=54	=54
1F	0.r	0.r	1.a
1E	.	.	.
.	.	.	2g/
1A	.	.	2f/
.	.	.	2e/
=55	=55	=55	=55
1G	0.r	0.r	0e
0F	.	.	.
.	.	.	1d
=56	=56	=56	=56
1E	0.r	0B	1e
1G	.	.	1r
1F	.	1c	1a
=57	=57	=57	=57
1G	0.r	1B	1.dd
1F	.	1A	.
.	.	.	2cc\
1G	.	1d	2b\
.	.	.	2a/
=58	=58	=58	=58
1A	0.r	1c	0a
0E	.	0B	.
.	.	.	1g#i
=59	=59	=59	=59
1A	0.r	1A	0a
0c	.	0e	.
.	.	.	1r
=60	=60	=60	=60
0.B	0.E	1.e	0g
.	.	2d\	.
.	.	2c\	1e
.	.	2B\	.
=61	=61	=61	=61
0.r	1F	1A	1c
.	1E	1B	1g
.	1A	1c	1f
=62	=62	=62	=62
0.r	1G	0B	0e
.	0F	.	.
.	.	1A	1d
=63	=63	=63	=63
0G	[0.E	0B	0e
1E	.	[1c	1r
=64	=64	=64	=64
1C	0E]	1c]	0g
1E	.	1B	.
1F	1r	1A	1a
=65	=65	=65	=65
1G	1G	1d	1b
1F	1.A	1f	1.cc
1r	.	[1e	.
.	2B\	.	2b\
=66	=66	=66	=66
1C	1.c	1e]	1g
1F	.	1f	1a
.	4B\	.	.
.	4A/	.	.
1E	1G	1g	1b
=67	=67	=67	=67
1G	1B	0d	0g
0D	0A	.	.
.	.	1d	1f#i
=68	=68	=68	=68
1E	[0.G	1B	0.g
1C	.	1c	.
1BB	.	1d	.
=69	=69	=69	=69
1.C	0.G]	1.e	0.r
2D\	.	2d\	.
2.E\	.	1B	.
4F\	.	.	.
=70	=70	=70	=70
1G	1r	1B	1e
1A	1r	2.c\	1f
.	.	4d\	.
1E	1E	1e	1g
=71	=71	=71	=71
1r	1F	1A	1a
1E	1G	1r	1e
1F	1A	1c	1r
=72	=72	=72	=72
1G	1E	1B	1g
1F	1r	1A	1a
1E	1G	1B	1g
=73	=73	=73	=73
1F	1A	1r	1cc
2G\	1G	1B	2b\
2E\	.	.	2g/
1F	[1c	1A	1a
=74	=74	=74	=74
1E	2c\]	1.e	1g
.	2B\	.	.
1r	1A	.	1cc
.	.	2f\	.
1r	1G	1g	1dd
=75	=75	=75	=75
1C	1c	0g	1cc
1G	1d	.	1.b
[1F	[1A	[1d	.
.	.	.	2a/
=76	=76	=76	=76
1F]	1A]	1d]	0a
0E	0B	0e	.
.	.	.	1g#i
=77	=77	=77	=77
1F	[0.Al	1c	[0.al
0D	.	1d	.
.	.	1f	.
=78	=78	=78	=78
*^	*	*	*
0.AAl\	0.Al/	0.A]	0.el	0.a]
*v	*v	*	*	*
==	==	==	==
*-	*-	*-	*-
!!!RDF**kern: l=long note in original notation
!!!RDF**kern: i=editorial accidental
!!!ENC:	Jesse Rodin 8/11/2013
!!!END:	2013/08/11/
!!!EED:	Jesse Rodin
!!!EEV:	2013/08/11/
!!!ONB:	Translated from MusicXML and edited on 2013/08/11/ by Craig Sapp
!!muse2ps: T^@{OPR}^u^@{ONM}{. }@{OTL}^C^@{COM}^i2I150v85,85,85,150c160
